src/assets/icons/google.svg

<svg width="14" height="14" viewBox="0 0 14 14" fill="none" xmlns="http://www.w3.org/2000/svg">
<g id="google">
<g clip-path="url(#clip0_156_4473)">
<path id="Vector" d="M13.7865 5.92024L13.7156 5.62098H7.20212V8.37811H11.0941C10.6899 10.297 8.81474 11.3067 7.28349 11.3067C6.16874 11.3067 4.99449 10.8377 4.21661 10.0844C3.38799 9.26887 2.91812 8.15674 2.91024 6.99474C2.91024 5.83361 3.43175 4.67163 4.19125 3.90775C4.95075 3.14388 6.09787 2.716 7.23799 2.716C8.54349 2.716 9.47975 3.40987 9.82975 3.72575L11.7889 1.7771C11.214 1.27223 9.63549 0 7.17499 0C5.27624 0 3.45624 0.727112 2.12536 2.05361C0.811989 3.35999 0.132996 5.24825 0.132996 7C0.132996 8.75175 0.776117 10.5464 2.04837 11.8624C3.40812 13.2659 5.33399 14 7.31674 14C9.12099 14 10.8307 13.293 12.0496 12.0102C13.2475 10.7476 13.867 9.00113 13.867 7.16975C13.8679 6.398 13.79 5.94037 13.7865 5.92024Z" fill="black"/>
</g>
</g>
<defs>
<clipPath id="clip0_156_4473">
<rect width="14" height="14" fill="white"/>
</clipPath>
</defs>
</svg>

<svg xmlns="http://www.w3.org/2000/svg" fill="none" viewBox="0 0 14 14"><g clip-path="url(#a)"><path fill="#000" d="m13.787 5.92-.071-.299H7.202v2.757h3.892c-.404 1.919-2.28 2.929-3.81 2.929-1.115 0-2.29-.47-3.067-1.223a4.38 4.38 0 0 1-1.307-3.09c0-1.16.522-2.322 1.281-3.086.76-.764 1.907-1.192 3.047-1.192 1.305 0 2.242.694 2.592 1.01l1.959-1.949C11.214 1.272 9.635 0 7.175 0c-1.899 0-3.719.727-5.05 2.054C.812 3.36.133 5.248.133 7s.643 3.546 1.915 4.862C3.408 13.266 5.334 14 7.317 14c1.804 0 3.514-.707 4.733-1.99 1.197-1.262 1.817-3.009 1.817-4.84 0-.772-.077-1.23-.08-1.25"/></g><defs><clipPath id="a"><path fill="#fff" d="M0 0h14v14H0z"/></clipPath></defs></svg>
